X:100
T:Fancy. ThoH.100, The
Q:3/8=90
M:6/8
L:1/8
B:Thompson's Compleat Collection of 120 Favourite Hornpipes.
Z:Village Music Project, Simon Wilson 2016
O:England.
K:A
e|ABc (c/d/e)B|c>(Bc/B/) A>(ef/g/)|agf e(d/c/B/A/)|B2EE2E|
ABc FGA|BdB GBe|cBA (c/d/e)E|A2AA2:|
|:e|cBA agf|e(d/c/B/A/)B2b|gfe (g/a/b)B|e2ee2a|
g>(fe/d/) cde|(f/g/a)AG2e/d/|cac BEG|A2AA2:|

